svgs/thin/sword-laser-alt.svg

<svg xmlns="http://www.w3.org/2000/svg" viewBox="0 0 512 512"><!--! Font Awesome Pro 6.0.0-alpha3 by @fontawesome - https://fontawesome.com License - https://fontawesome.com/license (Commercial License) --><path d="M502.1 9.05c-11.77-11.73-30.56-12.11-42.81-.8281l-233.6 214.5C223.3 225.8 223.1 230.8 226.1 234.1c3.016 3.281 8.078 3.469 11.3 .4843l233.6-214.5c5.953-5.437 14.1-5.281 20.69 .3594c5.656 5.656 5.812 14.75 .3594 20.69l-167.5 182.2c-2.984 3.25-2.781 8.312 .4844 11.3c1.531 1.406 3.469 2.109 5.406 2.109c2.156 0 4.312-.8749 5.891-2.594l167.5-182.2C515 39.61 514.7 20.8 502.1 9.05zM296.9 256H168.8c-6.078 0-11.81 2.422-16.17 6.796l-141.6 141.9c-14.78 14.8-14.78 38.89-.0156 53.72l42.31 42.4C60.56 508 70.07 512 80.21 512s19.66-3.953 26.81-11.12l206-205.5c6.687-6.546 8.734-16.39 5.187-25.06C314.7 261.6 306.3 256 296.9 256zM22.4 416l79.05-79.24l15.22 15.22L22.07 446.6C13.96 437.1 14.01 424.4 22.4 416zM33.27 458l94.7-94.7l20.69 20.69l-94.73 94.73L33.27 458zM95.7 489.6c-8.101 8.132-21.98 8.199-30.36 .3925l94.64-94.64l15.09 15.08L95.7 489.6zM301.8 284l-115.4 115.1l-73.65-73.64l51.23-51.36c1.344-1.344 3.062-2.094 4.844-2.094h128.1c4.391 0 6.094 3.328 6.5 4.359C303.8 277.4 304.1 280.9 301.8 284z"/></svg>

<svg xmlns="http://www.w3.org/2000/svg" viewBox="0 0 512 512"><!-- Font Awesome Pro 6.0.0-alpha2 by @fontawesome - https://fontawesome.com License - https://fontawesome.com/license (Commercial License) --><path d="M502.955 9.05C491.19 -2.683 472.393 -3.058 460.143 8.222L226.569 222.77C223.303 225.754 223.1 230.816 226.085 234.066C229.1 237.347 234.163 237.534 237.381 234.55L470.956 20.003C476.909 14.565 485.956 14.722 491.643 20.362C497.299 26.018 497.455 35.111 492.002 41.048L324.505 223.254C321.521 226.504 321.724 231.566 324.989 234.55C326.52 235.956 328.458 236.66 330.395 236.66C332.552 236.66 334.708 235.785 336.286 234.066L503.783 51.86C515.049 39.611 514.69 20.799 502.955 9.05ZM296.927 256.018H168.82C162.742 256.018 157.007 258.439 152.648 262.814L11.088 404.726C-3.693 419.522 -3.693 443.614 11.072 458.441L53.384 500.845C60.556 508.047 70.071 512 80.212 512S99.868 508.047 107.024 500.876L313.052 295.39C319.739 288.843 321.786 279 318.239 270.329C314.693 261.642 306.333 256.018 296.927 256.018ZM22.4 416.038L101.448 336.795L116.664 352.011L22.068 446.602C13.963 437.991 14.008 424.445 22.4 416.038ZM33.275 458.019L127.977 363.323L148.664 384.009L53.931 478.737L33.275 458.019ZM95.696 489.564C87.594 497.696 73.72 497.763 65.335 489.957L159.976 395.321L175.062 410.405L95.696 489.564ZM301.802 284L186.39 399.109L112.744 325.468L163.976 274.11C165.32 272.766 167.038 272.017 168.82 272.017H296.927C301.318 272.017 303.021 275.344 303.427 276.376C303.849 277.391 304.958 280.922 301.802 284Z"/></svg>
